Origami/32x32/apps/pia-manager.svg

<svg width="32" height="32" version="1.1" viewBox="0 0 32 32" xmlns="http://www.w3.org/2000/svg">
 <rect x="4" y="13" width="6" height="13" rx="1.5" ry="1.444" style="opacity:.2"/>
 <rect x="22" y="13" width="6" height="13" rx="1.5" ry="1.444" style="opacity:.2"/>
 <path d="m8.3846157 13h15.230768 1.384616v16.6c0 0.7756-0.617539 1.4-1.384616 1.4h-4.846153l-2.076923-3h-1.384616l-2.076923 3h-4.8461533c-0.7670769 0-1.3846153-0.6244-1.3846153-1.4v-16.6z" style="opacity:.2"/>
 <rect x="22" y="12" width="6" height="13" rx="1.5" ry="1.444" style="fill:#358334"/>
 <path d="m23.5 12c-0.831 0-1.5 0.64509-1.5 1.445312v1c0-0.800222 0.669-1.445312 1.5-1.445312h3c0.831 0 1.5 0.64509 1.5 1.445312v-1c0-0.800222-0.669-1.445312-1.5-1.445312h-3z" style="fill:#ffffff;opacity:.1"/>
 <rect x="4" y="12" width="6" height="13" rx="1.5" ry="1.444" style="fill:#358334"/>
 <path d="m5.5 12c-0.831 0-1.5 0.64509-1.5 1.445312v1c0-0.800222 0.669-1.445312 1.5-1.445312h3c0.831 0 1.5 0.64509 1.5 1.445312v-1c0-0.800222-0.669-1.445312-1.5-1.445312h-3z" style="fill:#ffffff;opacity:.1"/>
 <path d="m8.3846157 12h15.230768 1.384616v16.6c0 0.7756-0.617539 1.4-1.384616 1.4h-4.846153l-2.076923-3h-1.384616l-2.076923 3h-4.8461533c-0.7670769 0-1.3846153-0.6244-1.3846153-1.4v-16.6z" style="fill:#50b24e"/>
 <ellipse cx="16" cy="11.1" rx="9" ry="9.1" style="fill:#50b24e"/>
 <path d="m16 6c-3.313708 0-6 2.3878145-6 5.333333 0.0024 0.223011 0.02047 1.445671 0.0542 1.666667h11.893066c0.03324-0.221024 0.050852-1.443683 0.052734-1.666667 0-2.9455185-2.686292-5.333333-6-5.333333z" style="opacity:.2"/>
 <path d="m16 5c-3.313708 0-6 2.3878145-6 5.333333 0.0024 0.223011 0.02047 1.445671 0.0542 1.666667h11.893066c0.03324-0.221024 0.050852-1.443683 0.052734-1.666667 0-2.9455185-2.686292-5.333333-6-5.333333z" style="fill:#ffffff"/>
 <circle cx="13.5" cy="8.5" r="1.5" style="fill:#3f3f3f"/>
 <path d="m16 16a2 2 0 0 0 -2 2v1h-1.333984c-0.369334 0-0.666016 0.405067-0.666016 0.800781v4.484375c0 0.395715 0.296682 0.714844 0.666016 0.714844h6.667968c0.369333 0 0.666016-0.319129 0.666016-0.714844v-4.484375c0-0.395714-0.299708-0.847956-0.666016-0.800781h-1.333984v-1a2 2 0 0 0 -2 -2zm0 1a1 1 0 0 1 1 1v1h-2v-1a1 1 0 0 1 1 -1z" style="opacity:.2"/>
 <path d="m16 15a2 2 0 0 0 -2 2v1h-1.333984c-0.369334 0-0.666016 0.405067-0.666016 0.800781v4.484375c0 0.395715 0.296682 0.714844 0.666016 0.714844h6.667968c0.369333 0 0.666016-0.319129 0.666016-0.714844v-4.484375c0-0.395714-0.299708-0.847956-0.666016-0.800781h-1.333984v-1a2 2 0 0 0 -2 -2zm0 1a1 1 0 0 1 1 1v1h-2v-1a1 1 0 0 1 1 -1z" style="fill:#ffffff"/>
 <circle cx="18.5" cy="8.5" r="1.5" style="fill:#3f3f3f"/>
 <path d="M 16 2 A 9 9.1000004 0 0 0 7 11.099609 A 9 9.1000004 0 0 0 7.0214844 11.675781 A 9 9.1000004 0 0 1 16 3 A 9 9.1000004 0 0 1 24.978516 11.523438 A 9 9.1000004 0 0 0 25 11.099609 A 9 9.1000004 0 0 0 16 2 z" style="fill:#ffffff;opacity:.2"/>
</svg>

<svg xmlns="http://www.w3.org/2000/svg" width="32" height="32" version="1.1" viewBox="0 0 32 32">
 <rect style="opacity:0.2" width="6" height="13" x="4" y="13" rx="1.5" ry="1.444"/>
 <rect style="opacity:0.2" width="6" height="13" x="22" y="13" rx="1.5" ry="1.444"/>
 <path style="opacity:0.2" d="M 8.3846157,13 23.615384,13 25,13 25,29.6 c 0,0.7756 -0.617539,1.4 -1.384616,1.4 l -4.846153,0 -2.076923,-3 -1.384616,0 -2.076923,3 -4.8461533,0 C 7.6175388,31 7.0000004,30.3756 7.0000004,29.6 l 0,-16.6 z"/>
 <rect style="fill:#358334" width="6" height="13" x="22" y="12" rx="1.5" ry="1.444"/>
 <path style="opacity:0.1;fill:#ffffff" d="M 23.5 12 C 22.669 12 22 12.64509 22 13.445312 L 22 14.445312 C 22 13.64509 22.669 13 23.5 13 L 26.5 13 C 27.331 13 28 13.64509 28 14.445312 L 28 13.445312 C 28 12.64509 27.331 12 26.5 12 L 23.5 12 z"/>
 <rect style="fill:#358334" width="6" height="13" x="4" y="12" rx="1.5" ry="1.444"/>
 <path style="opacity:0.1;fill:#ffffff" d="M 5.5 12 C 4.669 12 4 12.64509 4 13.445312 L 4 14.445312 C 4 13.64509 4.669 13 5.5 13 L 8.5 13 C 9.331 13 10 13.64509 10 14.445312 L 10 13.445312 C 10 12.64509 9.331 12 8.5 12 L 5.5 12 z"/>
 <path style="fill:#50b24e" d="M 8.3846157,12 23.615384,12 25,12 25,28.6 c 0,0.7756 -0.617539,1.4 -1.384616,1.4 l -4.846153,0 -2.076923,-3 -1.384616,0 -2.076923,3 -4.8461533,0 C 7.6175388,30 7.0000004,29.3756 7.0000004,28.6 l 0,-16.6 z"/>
 <ellipse style="fill:#50b24e" cx="16" cy="11.1" rx="9" ry="9.1"/>
 <path style="opacity:0.2" d="m 16,6 c -3.313708,0 -6,2.3878145 -6,5.333333 0.0024,0.223011 0.02047,1.445671 0.0542,1.666667 l 11.893066,0 C 21.980506,12.778976 21.998118,11.556317 22,11.333333 22,8.3878145 19.313708,6 16,6 Z"/>
 <path style="fill:#ffffff" d="m 16,5 c -3.313708,0 -6,2.3878145 -6,5.333333 0.0024,0.223011 0.02047,1.445671 0.0542,1.666667 l 11.893066,0 C 21.980506,11.778976 21.998118,10.556317 22,10.333333 22,7.3878145 19.313708,5 16,5 Z"/>
 <circle style="fill:#3f3f3f" cx="13.5" cy="8.5" r="1.5"/>
 <path style="opacity:0.2" d="m 16,16 a 2,2 0 0 0 -2,2 l 0,1 -1.333984,0 C 12.296682,19 12,19.405067 12,19.800781 l 0,4.484375 C 12,24.680871 12.296682,25 12.666016,25 l 6.667968,0 C 19.703317,25 20,24.680871 20,24.285156 l 0,-4.484375 C 20,19.405067 19.700292,18.952825 19.333984,19 L 18,19 18,18 a 2,2 0 0 0 -2,-2 z m 0,1 a 1,1 0 0 1 1,1 l 0,1 -2,0 0,-1 a 1,1 0 0 1 1,-1 z"/>
 <path style="fill:#ffffff" d="m 16,15 a 2,2 0 0 0 -2,2 l 0,1 -1.333984,0 C 12.296682,18 12,18.405067 12,18.800781 l 0,4.484375 C 12,23.680871 12.296682,24 12.666016,24 l 6.667968,0 C 19.703317,24 20,23.680871 20,23.285156 l 0,-4.484375 C 20,18.405067 19.700292,17.952825 19.333984,18 L 18,18 18,17 a 2,2 0 0 0 -2,-2 z m 0,1 a 1,1 0 0 1 1,1 l 0,1 -2,0 0,-1 a 1,1 0 0 1 1,-1 z"/>
 <circle style="fill:#3f3f3f" cx="18.5" cy="8.5" r="1.5"/>
 <path style="opacity:0.2;fill:#ffffff" d="M 16 2 A 9 9.1000004 0 0 0 7 11.099609 A 9 9.1000004 0 0 0 7.0214844 11.675781 A 9 9.1000004 0 0 1 16 3 A 9 9.1000004 0 0 1 24.978516 11.523438 A 9 9.1000004 0 0 0 25 11.099609 A 9 9.1000004 0 0 0 16 2 z"/>
</svg>
